fs/font_space_tracking_out_16_filled.svg

<svg viewBox="0 0 16 16" fill="none" xmlns="http://www.w3.org/2000/svg" height="1em" width="1em">
  <path d="M11.6948 8.53423C11.5795 8.81607 11.3052 9.0002 11.0007 9.0002C10.6962 9.0002 10.4219 8.81607 10.3065 8.53422L8.05606 3.03422C7.89919 2.65086 8.08281 2.21292 8.46617 2.05606C8.84953 1.89919 9.28747 2.08281 9.44434 2.46617L11.0007 6.26976L12.557 2.46617C12.7139 2.08281 13.1518 1.89919 13.5352 2.05606C13.9186 2.21292 14.1022 2.65086 13.9453 3.03423L11.6948 8.53423ZM5.0002 2.0002C5.30474 2.0002 5.57905 2.18435 5.69436 2.46622L7.94436 7.96622C8.10119 8.3496 7.91755 8.78752 7.53417 8.94436C7.1508 9.10119 6.71287 8.91755 6.55604 8.53417L6.13305 7.5002H3.86735L3.44436 8.53417C3.28752 8.91755 2.8496 9.10119 2.46622 8.94436C2.08285 8.78752 1.8992 8.3496 2.05604 7.96622L4.30604 2.46622C4.42135 2.18435 4.69565 2.0002 5.0002 2.0002ZM5.51941 6.0002L5.0002 4.73101L4.48098 6.0002H5.51941ZM11.4696 10.22C11.7623 9.92701 12.2372 9.92681 12.5302 10.2196L13.7802 11.4685C13.9209 11.6091 14 11.7998 14.0001 11.9987C14.0002 12.1977 13.9213 12.3885 13.7807 12.5292L12.5307 13.7802C12.2379 14.0733 11.763 14.0735 11.47 13.7807C11.1868 13.4978 11.1771 13.0448 11.4411 12.7502H4.55919C4.82292 13.0445 4.81346 13.4972 4.53068 13.7802C4.23791 14.0733 3.76304 14.0735 3.47002 13.7807L2.22002 12.5318C2.07931 12.3912 2.00021 12.2004 2.00012 12.0015C2.00004 11.8026 2.07897 11.6118 2.21957 11.4711L3.46957 10.22C3.76233 9.92701 4.23721 9.92681 4.53023 10.2196C4.81342 10.5025 4.8231 10.9556 4.55914 11.2502H11.4411C11.1773 10.9558 11.1868 10.5031 11.4696 10.22Z" fill="#212121"/>
</svg>

<svg viewBox="0 0 16 16" fill="none" xmlns="http://www.w3.org/2000/svg" height="1em" width="1em">
  <path d="M11.695 8.534a.75.75 0 0 1-1.389 0l-2.25-5.5a.75.75 0 1 1 1.388-.568l1.557 3.804 1.556-3.804a.75.75 0 0 1 1.388.568l-2.25 5.5ZM5 2a.75.75 0 0 1 .694.466l2.25 5.5a.75.75 0 0 1-1.388.568L6.133 7.5H3.867l-.423 1.034a.75.75 0 0 1-1.388-.568l2.25-5.5A.75.75 0 0 1 5 2Zm.52 4L5 4.731l-.519 1.27h1.038Zm5.95 4.22a.75.75 0 0 1 1.06 0l1.25 1.248a.75.75 0 0 1 0 1.061l-1.25 1.251a.75.75 0 0 1-1.089-1.03H4.56a.75.75 0 0 1-1.089 1.03l-1.25-1.248a.75.75 0 0 1 0-1.06l1.25-1.252a.75.75 0 0 1 1.09 1.03h6.881a.75.75 0 0 1 .029-1.03Z" fill="#212121"/>
</svg>
